X: 32
T:Tobin's Favourite
R:jig
C:Trad, arr Phil Ro
S:Nottingham Music Database
M:6/8
L:1/8
Q:3/8=120
K:D
|:DFA dcd|ecA cde|fef gfg|ecA GFE|
DFA dcd|ecA cde| (4fgaf gec|[1 edc dFE:|[2 edc dfe|
|:dfa agf| (4efge efg|fef gfg|ecA GFE|
DFA dcd|ecA cde|fga gec|edc d2z:|
